assets/ng/src/assets/img/icon/sunset.svg

<?xml version="1.0" encoding="UTF-8" standalone="no"?>
<svg
   xmlns:dc="http://purl.org/dc/elements/1.1/"
   xmlns:cc="http://creativecommons.org/ns#"
   xmlns:rdf="http://www.w3.org/1999/02/22-rdf-syntax-ns#"
   xmlns:svg="http://www.w3.org/2000/svg"
   xmlns="http://www.w3.org/2000/svg"
   xmlns:sodipodi="http://sodipodi.sourceforge.net/DTD/sodipodi-0.dtd"
   xmlns:inkscape="http://www.inkscape.org/namespaces/inkscape"
   height="32px"
   version="1.1"
   viewBox="0 0 32 32"
   width="32px"
   id="svg9"
   sodipodi:docname="sunset.svg"
   inkscape:version="0.92.4 (5da689c313, 2019-01-14)">
  <metadata
     id="metadata13">
    <rdf:RDF>
      <cc:Work
         rdf:about="">
        <dc:format>image/svg+xml</dc:format>
        <dc:type
           rdf:resource="http://purl.org/dc/dcmitype/StillImage" />
      </cc:Work>
    </rdf:RDF>
  </metadata>
  <sodipodi:namedview
     pagecolor="#ffffff"
     bordercolor="#666666"
     borderopacity="1"
     objecttolerance="10"
     gridtolerance="10"
     guidetolerance="10"
     inkscape:pageopacity="0"
     inkscape:pageshadow="2"
     inkscape:window-width="1475"
     inkscape:window-height="886"
     id="namedview11"
     showgrid="false"
     inkscape:zoom="20.85965"
     inkscape:cx="15.168437"
     inkscape:cy="17.415019"
     inkscape:window-x="0"
     inkscape:window-y="3"
     inkscape:window-maximized="0"
     inkscape:current-layer="svg9" />
  <title
     id="title2" />
  <defs
     id="defs4" />
  <g
     id="Icons new Arranged Names"
     transform="matrix(1.4576027,0,0,1.4576027,-7.2879771,-4.9824655)"
     style="fill:none;fill-rule:evenodd;stroke:none;stroke-width:1">
    <g
       id="57 Sunset"
       style="fill:#000000">
      <path
         d="m 19.998846,18.996965 c 0,-2.20853 -1.790344,-3.998896 -3.998846,-3.998896 -2.208502,0 -3.998846,1.790366 -3.998846,3.998896 0,0.345209 0.04374,0.680202 0.125981,0.999724 h -2.04247 c -0.05454,-0.325128 -0.08293,-0.659111 -0.08293,-0.999724 0,-3.312794 2.685516,-5.998345 5.998269,-5.998345 3.312753,0 5.998269,2.685551 5.998269,5.998345 0,0.340613 -0.02839,0.674596 -0.08293,0.999724 h -2.04247 c 0.08224,-0.319522 0.125981,-0.654515 0.125981,-0.999724 z m 0.958331,-6.36789 1.400578,-1.400577 c 0.400123,-0.400123 1.030026,-0.397044 1.420437,-0.0066 0.393134,0.393133 0.387443,1.026363 -0.0066,1.420437 l -1.400577,1.400578 c -0.400123,0.400123 -1.030026,0.397043 -1.420437,0.0066 -0.393134,-0.393134 -0.387443,-1.026364 0.0066,-1.420438 z M 6.0090653,18.000426 h 1.9807156 c 0.5658595,0 1.0090904,0.447586 1.0090904,0.999712 0,0.528717 -0.4085722,0.955932 -0.9279267,0.996551 H 5.9271035 c -0.5261188,-0.04079 -0.9271286,-0.471381 -0.9271286,-0.996551 0,-0.555975 0.4517852,-0.999712 1.0090904,-0.999712 z m 20.0630327,1.996263 h -2.143841 c -0.526119,-0.04079 -0.927128,-0.471381 -0.927128,-0.996551 0,-0.555975 0.451785,-0.999712 1.00909,-0.999712 h 1.980716 c 0.565859,0 1.00909,0.447586 1.00909,0.999712 0,0.528717 -0.408572,0.955932 -0.927927,0.996551 z M 9.6422452,11.228498 11.042823,12.629075 c 0.400123,0.400123 0.397043,1.030026 0.0066,1.420438 -0.393133,0.393133 -1.026363,0.387442 -1.4204371,-0.0066 L 8.2284395,12.642303 C 7.8283164,12.24218 7.831396,11.612277 8.2218077,11.221866 c 0.3931335,-0.393134 1.0263631,-0.387443 1.4204375,0.0066 z M 15.000288,10.989806 V 9.0090904 C 15.000288,8.4432309 15.447875,8 16,8 c 0.555975,0 0.999712,0.4517852 0.999712,1.0090904 v 1.9807156 c 0,0.56586 -0.447587,1.00909 -0.999712,1.00909 -0.555975,0 -0.999712,-0.451785 -0.999712,-1.00909 z m 4.000577,6.007711 -3,3.998896 -3,-3.998896 z M 10,23 c 0,-0.556135 0.448823,-1 1.002473,-1 h 9.995054 C 21.544239,22 22,22.447715 22,23 c 0,0.556135 -0.448823,1 -1.002473,1 H 11.002473 C 10.455761,24 10,23.552285 10,23 Z m 0,0"
         id="Oval 13"
         inkscape:connector-curvature="0" />
    </g>
  </g>
</svg>

<?xml version="1.0" ?><svg height="32px" version="1.1" viewBox="0 0 32 32" width="32px" xmlns="http://www.w3.org/2000/svg" xmlns:sketch="http://www.bohemiancoding.com/sketch/ns" xmlns:xlink="http://www.w3.org/1999/xlink"><title/><defs/><g fill="none" fill-rule="evenodd" id="Icons new Arranged Names" stroke="none" stroke-width="1"><g fill="#000000" id="57 Sunset"><path d="M19.9988462,18.996965 C19.9988462,16.7884354 18.2085019,14.9980686 16,14.9980686 C13.7914981,14.9980686 12.0011538,16.7884354 12.0011538,18.996965 C12.0011538,19.3421741 12.0448954,19.6771667 12.1271349,19.9966891 L10.0846652,19.9966891 C10.0301205,19.6715608 10.0017307,19.3375784 10.0017307,18.996965 C10.0017307,15.6841706 12.6872472,12.9986205 16,12.9986205 C19.3127528,12.9986205 21.9982693,15.6841706 21.9982693,18.996965 C21.9982693,19.3375784 21.9698795,19.6715608 21.9153348,19.9966891 L19.8728651,19.9966891 C19.9551046,19.6771667 19.9988462,19.3421741 19.9988462,18.996965 Z M20.9571774,12.6290751 L22.3577548,11.2284977 C22.757878,10.8283745 23.3877807,10.8314542 23.7781923,11.2218658 C24.1713258,11.6149993 24.1656348,12.248229 23.7715605,12.6423033 L22.3709831,14.0428807 C21.9708599,14.4430038 21.3409572,14.4399242 20.9505456,14.0495125 C20.5574121,13.656379 20.5631031,13.0231494 20.9571774,12.6290751 Z M6.00906533,18.0004264 L7.98978089,18.0004264 C8.55564044,18.0004264 8.99887129,18.4480125 8.99887129,19.000138 C8.99887129,19.5288552 8.5902991,19.95607 8.07094462,19.9966891 L5.92710352,19.9966891 C5.40098469,19.9558976 4.99997492,19.5253084 4.99997492,19.000138 C4.99997492,18.4441632 5.45176009,18.0004264 6.00906533,18.0004264 Z M26.0720984,19.9966891 L23.9282573,19.9966891 C23.4021385,19.9558976 23.0011287,19.5253084 23.0011287,19.000138 C23.0011287,18.4441632 23.4529139,18.0004264 24.0102191,18.0004264 L25.9909347,18.0004264 C26.5567942,18.0004264 27.0000251,18.4480125 27.0000251,19.000138 C27.0000251,19.5288552 26.5914529,19.95607 26.0720984,19.9966891 Z M9.64224516,11.2284977 L11.0428226,12.6290751 C11.4429457,13.0291982 11.4398661,13.6591009 11.0494544,14.0495125 C10.6563209,14.4426461 10.0230912,14.436955 9.62901693,14.0428807 L8.22843952,12.6423033 C7.8283164,12.2421802 7.83139603,11.6122775 8.22180768,11.2218658 C8.6149412,10.8287323 9.24817085,10.8344233 9.64224516,11.2284977 Z M15.0002884,10.989806 L15.0002884,9.0090904 C15.0002884,8.44323085 15.4478746,8 16,8 C16.5559748,8 16.9997116,8.45178516 16.9997116,9.0090904 L16.9997116,10.989806 C16.9997116,11.5556655 16.5521254,11.9988964 16,11.9988964 C15.4440252,11.9988964 15.0002884,11.5471112 15.0002884,10.989806 Z M19.0008653,16.9975168 L16.0008653,20.9964132 L13.0008653,16.9975168 Z M10,23 C10,22.4438648 10.4488226,22 11.0024733,22 L20.9975267,22 C21.544239,22 22,22.4477153 22,23 C22,23.5561352 21.5511774,24 20.9975267,24 L11.0024733,24 C10.455761,24 10,23.5522847 10,23 Z M10,23" id="Oval 13"/></g></g></svg>
